X:153
M:4/4
L:1/8
K:D
dB | AFEF D2E2 | FDFA d2e2 | f2e2 dBAF | E2E2 E2dB | 
z2 | BABc def2 | efgf e2de | f/g/f e/f/e dBAF | E2E2 E2dB | 

